icons/unity-panel/22x22/panel/nm-device-wired-secure.svg

<?xml version="1.0" encoding="UTF-8" standalone="no"?>
<svg
   version="1.0"
   viewBox="0 0 22 22"
   id="svg10"
   sodipodi:docname="nm-device-wired-secure.svg"
   inkscape:version="1.1.1 (3bf5ae0d25, 2021-09-20)"
   xmlns:inkscape="http://www.inkscape.org/namespaces/inkscape"
   xmlns:sodipodi="http://sodipodi.sourceforge.net/DTD/sodipodi-0.dtd"
   xmlns="http://www.w3.org/2000/svg"
   xmlns:svg="http://www.w3.org/2000/svg">
  <defs
     id="defs14" />
  <sodipodi:namedview
     id="namedview12"
     pagecolor="#ffffff"
     bordercolor="#666666"
     borderopacity="1.0"
     inkscape:pageshadow="2"
     inkscape:pageopacity="0.0"
     inkscape:pagecheckerboard="0"
     showgrid="true"
     inkscape:zoom="24.181818"
     inkscape:cx="10.979323"
     inkscape:cy="10.979323"
     inkscape:window-width="1298"
     inkscape:window-height="704"
     inkscape:window-x="68"
     inkscape:window-y="27"
     inkscape:window-maximized="1"
     inkscape:current-layer="svg10">
    <inkscape:grid
       type="xygrid"
       id="grid946" />
  </sodipodi:namedview>
  <path
     id="path2"
     style="font-variant-ligatures:normal;font-variant-position:normal;font-variant-caps:normal;font-variant-numeric:normal;font-variant-alternates:normal;font-feature-settings:normal;text-indent:0;text-decoration-line:none;text-decoration-style:solid;text-decoration-color:#000000;text-transform:none;text-orientation:mixed;shape-padding:0;isolation:auto;mix-blend-mode:normal;fill:#ffffff"
     d="M 9.427734,4 C 8.977734,4.005 8.647876,3.987717 8.378906,4.1367188 A 0.673,0.673 0 0 0 8.080078,4.4941406 C 8.021078,4.6511406 8,4.8353125 8,5.0703125 v 1.8574219 c 0,0.235 0.02208,0.421125 0.08008,0.578125 A 0.668,0.668 0 0 0 8.380861,7.8613281 C 8.648859,8.0093281 8.977714,7.995 9.427734,8 h 0.576172 L 10,10 H 6.5 C 5.833,10 5.361734,10.408344 5.177734,10.777344 4.992734,11.147344 5,11.5 5,11.5 V 13 H 4.427734 C 3.9777344,13.005 3.6478763,12.987716 3.3789063,13.136719 A 0.673,0.673 0 0 0 3.0800781,13.494141 C 3.0210781,13.651141 3,13.835313 3,14.070312 v 1.857422 c 0,0.235 0.022078,0.421125 0.080078,0.578125 a 0.668,0.668 0 0 0 0.3007813,0.355469 c 0.268,0.148 0.596845,0.133672 1.0468746,0.138672 h 2.146485 c 0.45,-0.005 0.777845,0.01033 1.046875,-0.138672 a 0.668,0.668 0 0 0 0.300781,-0.355469 c 0.058,-0.157 0.08008,-0.343125 0.08008,-0.578125 v -1.857422 c 0,-0.234999 -0.02208,-0.420171 -0.08008,-0.576171 A 0.672,0.672 0 0 0 7.621094,13.136719 C 7.352094,12.986719 7.024239,13.005 6.574219,13 H 6.572219 6 v -1.5 c 0,0 0.0073,-0.147344 0.07227,-0.277344 C 6.138265,11.091656 6.167004,11 6.5,11 h 8 c 0.20104,0 0.291313,0.03259 0.345703,0.08789 0.20976,-0.05826 0.430263,-0.08984 0.658203,-0.08984 h 0.408203 c -0.02345,-0.07128 -0.05205,-0.145113 -0.08984,-0.220703 A 1.485,1.485 0 0 0 14.5,10 h -3.498047 l 0.0039,-2 h 0.568356 c 0.45,-0.005 0.777845,0.010326 1.046875,-0.1386719 a 0.668,0.668 0 0 0 0.300781,-0.3554687 c 0.058,-0.157 0.08008,-0.343125 0.08008,-0.578125 V 5.0703125 c 0,-0.235 -0.02208,-0.4201719 -0.08008,-0.5761719 A 0.672,0.672 0 0 0 12.621094,4.1367188 C 12.352094,3.9867187 12.024239,4.005 11.574219,4 h -0.002 z M 16,11.998047 c -1.108,0 -2,0.9102 -2,2.03125 V 15 h -1 v 4 h 6 V 15 H 18 V 14.029297 C 18,12.909297 17.108,12 16,12 Z m 0,1 c 0.554,0 1,0.442 1,1 v 1 h -2 v -1 c 0,-0.558 0.446,-1 1,-1 z" />
</svg>

<svg version="1.0" viewBox="0 0 22 22" xmlns="http://www.w3.org/2000/svg">
 <path d="m9.4277 4c-0.45 5e-3 -0.77986-0.012283-1.0488 0.13672a0.673 0.673 0 0 0-0.29883 0.35742c-0.059 0.157-0.080078 0.34117-0.080078 0.57617v1.8574c0 0.235 0.02208 0.42112 0.08008 0.57812a0.668 0.668 0 0 0 0.30078 0.35547c0.268 0.148 0.59685 0.13367 1.0469 0.13867h0.57617l-0.003906 2h-3.5c-0.667 0-1.1383 0.40834-1.3223 0.77734-0.185 0.37-0.17773 0.72266-0.17773 0.72266v1.5h-0.57227c-0.45 5e-3 -0.77986-0.012284-1.0488 0.13672a0.673 0.673 0 0 0-0.29883 0.35742c-0.059 0.157-0.080078 0.34117-0.080078 0.57617v1.8574c0 0.235 0.022078 0.42112 0.080078 0.57812a0.668 0.668 0 0 0 0.30078 0.35547c0.268 0.148 0.59684 0.13367 1.0469 0.13867h2.1465c0.45-5e-3 0.77784 0.01033 1.0469-0.13867a0.668 0.668 0 0 0 0.30078-0.35547c0.058-0.157 0.08008-0.34312 0.08008-0.57812v-1.8574c0-0.235-0.02208-0.42017-0.08008-0.57617a0.672 0.672 0 0 0-0.30078-0.35742c-0.269-0.15-0.59686-0.13172-1.0469-0.13672h-0.57422v-1.5s0.0073-0.14734 0.07227-0.27734c0.065995-0.131 0.094734-0.22266 0.42773-0.22266h8c0.20104 0 0.29131 0.03259 0.3457 0.08789 0.20976-0.05826 0.43026-0.08984 0.6582-0.08984h0.4082c-0.02345-0.07128-0.05205-0.14511-0.08984-0.2207a1.485 1.485 0 0 0-1.3223-0.77735h-3.498l0.0039-2h0.56836c0.45-5e-3 0.77784 0.010326 1.0469-0.13867a0.668 0.668 0 0 0 0.30078-0.35547c0.058-0.157 0.08008-0.34312 0.08008-0.57812v-1.8574c0-0.235-0.02208-0.42017-0.08008-0.57617a0.672 0.672 0 0 0-0.30077-0.35742c-0.269-0.15-0.59686-0.13172-1.0469-0.13672h-2e-3zm6.5723 7.998c-1.108 0-2 0.9102-2 2.0312v0.9707h-1v4h6v-4h-1v-0.9707c0-1.12-0.892-2.0293-2-2.0293zm0 1c0.554 0 1 0.442 1 1v1h-2v-1c0-0.558 0.446-1 1-1z" fill="#fff" style="font-feature-settings:normal;font-variant-alternates:normal;font-variant-caps:normal;font-variant-ligatures:normal;font-variant-numeric:normal;font-variant-position:normal;isolation:auto;mix-blend-mode:normal;shape-padding:0;text-decoration-color:#000000;text-decoration-line:none;text-decoration-style:solid;text-indent:0;text-orientation:mixed;text-transform:none"/>
</svg>
